X: 37085
T: Silver Tassie, The
R: barndance
M: 4/4
K: Cmajor
C|C3 E G3 A|c3 G E3 E|D2 EG c3 d|e>d cB A2 GE|
C3 E G3 A|cB AG E3 G|e3 d c<A G>E|D2 E>G A2 G||
G|c2 c>d c3 A|G/A/ c2 G E3 E|D2 E>G c3 d|e>d cB A2 GG|
c2 cd/e/ A2 Bc|G2 f3/2e/ d3 B|c3 B A>G/A// cE|D2 E>G A2 G||

